X:1
T:Title
%%score { ( 1 3 ) | ( 2 4 ) }
L:1/8
M:3/4
K:D
V:1 bass nm="Grand Piano"
V:3 bass 
V:2 bass 
V:4 bass 
V:1
 z2 z2 z[Q:1/4=100] [F,D] | [F,D]>[K:treble][A,DF] [DFA]3 [A,DF] | [G,CE]>[F,D] [F,A,D]4 | %3
 [A,DF]3 [A,CE] [A,DF]>[DFA] |[M:5/8] [DFA]- [DFA]3 z |[M:1/8][K:bass] [F,D] | %6
[M:3/4] [F,D]>[K:treble][A,DF] [DFA]3 [A,DF] | [G,CE]>[F,D] [F,A,D]4 | %8
[M:13/16][K:treble] C-<C-[CA]3/2[CG][CE]>D |[M:3/4] D4 z2 | F3 [CE] [DF]>[FA] | [FA]4 z2 | %12
[M:13/16] [Ad]-<[Ad]e3/2dd>B |[M:3/4] [Fd]4 [FA]2 | BB d3 B | [DFA]>[A,DF] [A,CA]4 | %16
[M:13/16] C-<C-[CA]3/2[CG][CE]>D |[M:5/8] D- D3 z |] %18
V:2
 z2 z2 z D, | D,>D, D,3 D, | A,,>D, D,4 | D,3 A,, D,>D, |[M:5/8] D,- D,3 z |[M:1/8] D, | %6
[M:3/4] D,>D, D,3 D, | A,,>D, D,4 |[M:13/16] z/ z/ z E,3/2[A,,E,][A,,G,]>[A,,F,] | %9
[M:3/4] [D,F,]4 z2 | [D,A,D]3 [A,,A,] [D,A,]>[D,D] | [D,D]4 z2 | %12
[M:13/16] [F,A,]-<[F,A,][K:treble][G,B,G]3/2[G,B,G][G,B,G]>[G,B,G] | %13
[M:3/4][K:bass] [D,A,]4 [D,D]2 | [G,DG][G,DG] [G,B,G]3 [G,DG] | D,>D, A,,4 | %16
[M:13/16] z/ z/ z E,3/2[A,,E,][A,,G,]>[A,,F,] |[M:5/8] [D,F,]- [D,F,]3 z |] %18
V:3
 x6 | x3/2[K:treble] x9/2 | x6 | x6 |[M:5/8] x5 |[M:1/8][K:bass] x |[M:3/4] x3/2[K:treble] x9/2 | %7
 x6 |[M:13/16][K:treble] [A,E]-<[A,E] z/ z/ z/ z/ z/ z/ z/ z |[M:3/4] x6 | x6 | x6 | %12
[M:13/16] x13/2 |[M:3/4] x6 | x6 | x6 |[M:13/16] [A,E]-<[A,E] z/ z/ z/ z/ z/ z/ z/ z |[M:5/8] x5 |] %18
V:4
 x6 | x6 | x6 | x6 |[M:5/8] x5 |[M:1/8] x |[M:3/4] x6 | x6 | %8
[M:13/16] A,,/-A,,/-A,,/-A,,-<A,, z/ z/ z/ z/ z |[M:3/4] x6 | x6 | x6 | %12
[M:13/16] x2[K:treble] x9/2 |[M:3/4][K:bass] x6 | x6 | x6 | %16
[M:13/16] A,,/-A,,/-A,,/-A,,-<A,, z/ z/ z/ z/ z |[M:5/8] x5 |] %18

